src/assets/filled/EmptyWallet.svg

<svg width="24" height="24" viewBox="0 0 24 24"  xmlns="http://www.w3.org/2000/svg">
<path d="M14.85 3.94999V7.74999H13.35V3.94999C13.35 3.67999 13.11 3.54999 12.95 3.54999C12.9 3.54999 12.85 3.55999 12.8 3.57999L4.87 6.56999C4.34 6.76999 4 7.26999 4 7.83999V8.50999C3.09 9.18999 2.5 10.28 2.5 11.51V7.83999C2.5 6.64999 3.23 5.58999 4.34 5.16999L12.28 2.16999C12.5 2.08999 12.73 2.04999 12.95 2.04999C13.95 2.04999 14.85 2.85999 14.85 3.94999Z" />
<path d="M21.4999 14.5V15.5C21.4999 15.77 21.2899 15.99 21.0099 16H19.5499C19.0199 16 18.5399 15.61 18.4999 15.09C18.4699 14.78 18.5899 14.49 18.7899 14.29C18.9699 14.1 19.2199 14 19.4899 14H20.9999C21.2899 14.01 21.4999 14.23 21.4999 14.5Z" />
<path d="M19.48 12.95H20.5C21.05 12.95 21.5 12.5 21.5 11.95V11.51C21.5 9.44 19.81 7.75 17.74 7.75H6.26C5.41 7.75 4.63 8.03 4 8.51C3.09 9.19 2.5 10.28 2.5 11.51V18.24C2.5 20.31 4.19 22 6.26 22H17.74C19.81 22 21.5 20.31 21.5 18.24V18.05C21.5 17.5 21.05 17.05 20.5 17.05H19.63C18.67 17.05 17.75 16.46 17.5 15.53C17.29 14.77 17.54 14.04 18.04 13.55C18.41 13.17 18.92 12.95 19.48 12.95ZM14 12.75H7C6.59 12.75 6.25 12.41 6.25 12C6.25 11.59 6.59 11.25 7 11.25H14C14.41 11.25 14.75 11.59 14.75 12C14.75 12.41 14.41 12.75 14 12.75Z" />
</svg>

<?xml version="1.0" encoding="UTF-8"?>
<svg width="24" height="24" viewBox="0 0 24 24" xmlns="http://www.w3.org/2000/svg">
 <path d="m14.85 3.95v3.8h-1.5v-3.8c0-0.27-0.24-0.4-0.4-0.4-0.05 0-0.1 0.01-0.15 0.03l-7.93 2.99c-0.53 0.2-0.87 0.7-0.87 1.27v0.67c-0.91 0.68-1.5 1.77-1.5 3v-3.67c0-1.19 0.73-2.25 1.84-2.67l7.94-3c0.22-0.08 0.45-0.12 0.67-0.12 1 0 1.9 0.81 1.9 1.9z"/>
 <path d="m21.5 14.5v1c0 0.27-0.21 0.49-0.49 0.5h-1.46c-0.53 0-1.01-0.39-1.05-0.91-0.03-0.31 0.09-0.6 0.29-0.8 0.18-0.19 0.43-0.29 0.7-0.29h1.51c0.29 0.01 0.5 0.23 0.5 0.5z"/>
 <path d="m19.48 12.95h1.02c0.55 0 1-0.45 1-1v-0.44c0-2.07-1.69-3.76-3.76-3.76h-11.48c-0.85 0-1.63 0.28-2.26 0.76-0.91 0.68-1.5 1.77-1.5 3v6.73c0 2.07 1.69 3.76 3.76 3.76h11.48c2.07 0 3.76-1.69 3.76-3.76v-0.19c0-0.55-0.45-1-1-1h-0.87c-0.96 0-1.88-0.59-2.13-1.52-0.21-0.76 0.04-1.49 0.54-1.98 0.37-0.38 0.88-0.6 1.44-0.6zm-5.48-0.2h-7c-0.41 0-0.75-0.34-0.75-0.75s0.34-0.75 0.75-0.75h7c0.41 0 0.75 0.34 0.75 0.75s-0.34 0.75-0.75 0.75z"/>
</svg>
